packages/assets/static/images/icons/lg-fishing.svg

<svg width="24" height="24" viewBox="0 0 24 24" xmlns="http://www.w3.org/2000/svg" fill="currentColor" aria-hidden="true"> <g clip-path="url(#clip0_2001_46257)"> <path d="M15.625 7.12504C15.625 7.42171 15.537 7.71172 15.3722 7.95839C15.2074 8.20507 14.9731 8.39733 14.699 8.51086C14.4249 8.62439 14.1233 8.65409 13.8324 8.59622C13.5414 8.53834 13.2741 8.39548 13.0643 8.1857C12.8545 7.97592 12.7117 7.70864 12.6538 7.41767C12.5959 7.1267 12.6256 6.8251 12.7392 6.55101C12.8527 6.27692 13.045 6.04266 13.2916 5.87783C13.5383 5.71301 13.8283 5.62504 14.125 5.62504C14.5228 5.62504 14.9043 5.78307 15.1856 6.06438C15.467 6.34568 15.625 6.72721 15.625 7.12504ZM20.1456 13.6482C19.5169 14.7865 18.6626 15.7847 17.635 16.5816C17.6125 16.6003 17.5909 16.6182 17.5675 16.6341C17.165 16.941 16.7404 17.2177 16.2972 17.4619C14.5815 18.406 12.4647 18.9525 9.9953 19.0894L8.03124 23.3438C7.94161 23.5393 7.7978 23.7051 7.61685 23.8214C7.43591 23.9377 7.22541 23.9997 7.0103 24C6.98467 24 6.95936 24 6.93436 24C6.7073 23.9847 6.49022 23.9009 6.3118 23.7596C6.13337 23.6183 6.00199 23.4263 5.93499 23.2088L4.60749 18.8963L0.294988 17.566C0.0772787 17.4989 -0.114931 17.3673 -0.256214 17.1886C-0.397497 17.0098 -0.481194 16.7925 -0.496233 16.5651C-0.511272 16.3378 -0.456945 16.1113 -0.340438 15.9155C-0.223931 15.7198 -0.0507345 15.564 0.156238 15.4688L4.41249 13.5075C4.5503 11.0391 5.09686 8.92223 6.04093 7.20754C6.28447 6.76359 6.56021 6.33808 6.86592 5.93441C6.88093 5.91379 6.8978 5.89316 6.91374 5.87254C7.71102 4.84232 8.71056 3.98602 9.85093 3.35629C12.2462 2.02598 14.9444 1.8216 16.7884 1.88535C18.4534 1.94254 20.2094 2.26035 20.6097 2.4966C20.773 2.59342 20.9094 2.72979 21.0062 2.89316C21.2425 3.29254 21.5612 5.04941 21.6184 6.71441C21.6784 8.55566 21.475 11.25 20.1456 13.6482ZM13.705 16.1475C13.3253 15.9217 12.9751 15.6496 12.6625 15.3375C11.8484 14.5255 11.3246 13.4678 11.1719 12.3282C10.0322 12.1755 8.97457 11.6516 8.16249 10.8375C7.85043 10.5247 7.57864 10.1742 7.35343 9.7941C6.91593 11.0741 6.6753 12.5644 6.63155 14.265C6.62628 14.4757 6.56197 14.6806 6.44594 14.8564C6.32992 15.0323 6.16685 15.172 5.9753 15.2597L3.76655 16.2788L5.83843 16.9182C6.0138 16.9721 6.17331 17.0682 6.30305 17.1979C6.4328 17.3277 6.52884 17.4872 6.5828 17.6625L7.21936 19.7335L8.2403 17.5219C8.32802 17.3304 8.46776 17.1673 8.64362 17.0513C8.81947 16.9352 9.02437 16.8709 9.23499 16.8657C10.9325 16.8275 12.4225 16.5882 13.705 16.1475ZM19.0937 4.40629C17.5703 4.11191 13.2991 3.56254 10.1875 5.8041C9.70092 6.15408 9.26001 6.56351 8.87499 7.02285C8.86056 7.44899 8.93714 7.8733 9.09961 8.26751C9.26208 8.66172 9.50672 9.01677 9.81721 9.30899C10.1277 9.60121 10.4969 9.82388 10.9003 9.96217C11.3036 10.1005 11.7318 10.1512 12.1562 10.111C12.3213 10.0952 12.4879 10.116 12.644 10.1721C12.8 10.2282 12.9418 10.3181 13.0591 10.4354C13.1763 10.5526 13.2662 10.6944 13.3223 10.8504C13.3784 11.0065 13.3992 11.1731 13.3834 11.3382C13.3431 11.7631 13.394 12.1918 13.5326 12.5955C13.6712 12.9993 13.8944 13.3688 14.1873 13.6794C14.4801 13.99 14.8359 14.2345 15.2307 14.3966C15.6256 14.5587 16.0506 14.6347 16.4772 14.6194C16.9368 14.2347 17.3462 13.7937 17.6959 13.3069C19.9422 10.201 19.3919 5.92691 19.0937 4.40629Z"/> </g> <defs> <clipPath id="clip0_2001_46257"> <rect width="24" height="24"/> </clipPath> </defs> </svg>

<svg viewBox="0 0 24 24" xmlns="http://www.w3.org/2000/svg" aria-hidden="true" fill="currentColor"><g clip-path="url(#a)"><path d="M15.625 7.125a1.5 1.5 0 1 1-3 0 1.5 1.5 0 0 1 3 0m4.52 6.523a9.6 9.6 0 0 1-2.578 2.986q-.604.461-1.27.828c-1.716.944-3.832 1.49-6.302 1.627l-1.964 4.255a1.13 1.13 0 0 1-1.02.656h-.077a1.125 1.125 0 0 1-.999-.791l-1.328-4.313-4.312-1.33a1.125 1.125 0 0 1-.139-2.097l4.256-1.961c.138-2.469.685-4.586 1.629-6.3q.366-.667.825-1.274l.048-.061A9.6 9.6 0 0 1 9.85 3.356c2.395-1.33 5.093-1.534 6.937-1.47 1.665.057 3.421.374 3.822.61.163.097.3.234.396.397.236.4.555 2.156.612 3.821.06 1.842-.143 4.536-1.472 6.934m-6.44 2.5a5.3 5.3 0 0 1-1.043-.81 5.23 5.23 0 0 1-1.49-3.01 5.23 5.23 0 0 1-3.01-1.49 5.3 5.3 0 0 1-.809-1.044q-.656 1.92-.721 4.471a1.13 1.13 0 0 1-.657.995l-2.208 1.019 2.071.64a1.13 1.13 0 0 1 .745.744l.636 2.07 1.021-2.211a1.13 1.13 0 0 1 .995-.656q2.546-.057 4.47-.718m5.389-11.742c-1.524-.294-5.795-.843-8.907 1.398-.486.35-.927.76-1.312 1.219a3 3 0 0 0 3.281 3.088 1.125 1.125 0 0 1 1.227 1.227 3 3 0 0 0 3.094 3.281c.46-.384.87-.825 1.219-1.312 2.246-3.106 1.696-7.38 1.398-8.9"/></g><defs><clipPath id="a"><path d="M0 0h24v24H0z"/></clipPath></defs></svg>
